X:1
T:Title
%%score ( 1 2 3 ) { ( 4 6 7 ) | 5 }
L:1/8
Q:1/4=115
M:3/4
K:Bb
V:1 treble nm="Grand Piano, Staff"
V:2 treble 
V:3 treble 
V:4 bass nm="Choir Pad, O Wonder Amazing"
V:6 bass 
V:7 bass 
V:5 bass 
V:1
 D2 [DG]2 [DF]2 | E2 C2 [B,D]2 | [CF]2 [DB]2 [DA]2 | [CF]2 [=EG]4 | [FA]2 [Fd]2 [Fc]2 | %5
w: By~William~Wallace~Gilchrist~(1846\-1916) * *|||||
 [DB]2 [=EG]2 [FA]2 | [Fc]2 [Ge]2 [Gd]2 | [FB]2 [Ac]4 | [Fd]2 [FG]2 [Ec]2 | [EA]2 [EB]2 [DG]2 | %10
w: |||||
 [CEA]2 [CD]2 [B,G]2 | [A,E]2 [A,D]4 | D2 [DG]2 [DF]2 | [B,E]2 [A,C]2 [A,D]2 | z2 z2 c2- | %15
w: |||||
 c z z2 z2 | z6 |] %17
w: ||
V:2
 x6 | x6 | x6 | x6 | x6 | x6 | x6 | x6 | x6 | x6 | x6 | x6 | x6 | x6 | [DB]2 [Ee]2 F2 | %15
 z B [DB]4- | [DB]4 z2 |] %17
V:3
 x6 | x6 | x6 | x6 | x6 | x6 | x6 | x6 | x6 | x6 | x6 | x6 | x6 | x6 | x6 | E2 z2 z2 | x6 |] %17
V:4
 D,2 B,2 B,2 | G,2 A,2 F,2 | A,2 B,2 F,2 | A,2 C4 | A,2 A,2 A,2 | D2 C2 C2 | A,2 B,2 B,2 | D2 F4 | %8
 D2 D2 C2 | C2 C2[K:bass] B,2 | A,2 A,2 G,2 | G,2 ^F,4 | D,2 B,2 B,2 | G,2 F,2 ^F,2 | z2 z2 A,2- | %15
 A, z z2 z2 | z6 |] %17
V:5
 z2 G,,2 B,,2 | E,2 F,2 B,,2 | F,2 B,,2 D,2 | F,2 C,4 | F,2 D,2 F,2 | B,,2 C,2 F,2 | F,2 E,2 G,2 | %7
 B,2 F,4 | B,,2 E,2 C,2 | F,2 B,,2 E,2 | A,,2 D,2 G,,2 | A,,2 D,4 | z2 G,,2 B,,2 | E,2 z2 D,2 | %14
 B,,2 C,2 F,2 | F,,2 [B,,F,]4- | [B,,F,]4 z2 |] %17
V:6
 x6 | x6 | x6 | x6 | x6 | x6 | x6 | x6 | x6 | x4[K:bass] x2 | x6 | x6 | x6 | x6 | F,B, G,2 z2 | %15
 z B, B,4- | B,4 z2 |] %17
V:7
 x6 | x6 | x6 | x6 | x6 | x6 | x6 | x6 | x6 | x4[K:bass] x2 | x6 | x6 | x6 | x6 | x6 | F,2 z2 z2 | %16
 x6 |] %17

